X:1
T:Title
%%score 1 ( 2 3 )
L:1/8
Q:1/4=180
M:4/2
K:Ab
V:1 treble nm="Grand Piano, Soprano"
V:2 bass nm="Choir Pad, Bass"
V:3 bass 
V:1
 [A,C]3 [B,D] [CE]4 [DF]3 [CE] [DG]4 | [DF]3 [DE] [Fd]8 [Ec]4 | [Ec]4 [=Dc]4 [DB]3 [DF] [DF]4 | %3
w: By~Frank~Marion~Davis * * * * *|||
 [DG]3 [DF] [CE]12 | [A,C]3 [B,D] [CE]4 [DF]3 [CE] [DG]4 | [DF]3 [DE] [Fd]8 [Ec]4 | %6
w: |||
 [Ec]4 [=Dc]4 [DB]3 [DF] [_DG]4 | [DB]3 [DB] [CA]12 | [Fc]4 [=Ec]4 [EG]3 [EB] [FA]4 | %9
w: |||
 [FA]4 [FA]4 [FB]3 [F_c] [=E=c]2 [_Ed]2 | [A,C]3 [CE] [CE]4 [DF]3 [CE] [DG]4 | %11
w: ||
 [DF]3 [DE] [Fd]8 [Ec]4 | [Ec]4 [=Dc]4 [DB]3 [DF] [_DG]4 | [DB]3 [DB] [CA]12- | [CA]4 z4 z8 |] %15
w: ||||
V:2
 [A,,E,]3 [A,,E,] [A,,A,]4 [A,,A,]3 [A,,A,] E,4 | [E,B,]3 [E,G,] [A,,A,]8 [A,,A,]4 | %2
 [A,,A,]4 [B,,F,]4 [B,,F,]3 [B,,B,] [B,,B,]4 | [E,B,]3 [E,G,] [A,,A,]12 | %4
 [A,,E,]3 [A,,E,] [A,,A,]4 [A,,A,]3 [A,,A,] E,4 | [E,B,]3 [E,G,] [A,,A,]8 [A,,A,]4 | %6
 [A,,A,]4 [B,,F,]4 [B,,F,]3 [B,,B,] E,4 | [E,G,]3 [E,G,] [A,,A,]12 | %8
 [F,A,]4 [C,G,]4 [C,C]3 [C,C] [F,C]4 | z8 z4 G,4 | [A,,A,]3 [A,,E,] [A,,A,]4 [A,,A,]3 [A,,A,] E,4 | %11
 [E,B,]3 [E,G,] [A,,A,]8 [A,,A,]4 | [A,,A,]4 [B,,F,]4 [B,,F,]3 [B,,B,] E,4 | %13
 [E,G,]3 [E,G,] [A,,A,]12- | [A,,A,]4 z4 z8 |] %15
V:3
 x16 | x16 | x16 | x16 | x16 | x16 | x16 | x16 | x16 | [F,C]4 [F,A,]4 [D,F,]3 [D,F,] C,2 B,,2 | %10
 x16 | x16 | x16 | x16 | x16 |] %15

